F[BALLADE
CUT[Die verkaufte Muellerin
    Es wollt ein Mueller frueh aufstehn,]
CNR[wollt in den Wald spazieren gehn,]
REG[Mitteleuropa, Deutschland / Frankreich, Lothringen]
SRC[4, S. 342
    1908 gedruckt in Metz]
KEY[Q0086O 08  G 2/2]
MEL[-5_  1_-5_1_2_  3_321_
    2_  3_2_3_4_  5_543_
    5_  6_5_4_3_  3__5__  2__0_ //] >>
FCT[Ballade, Menschenhandel, Rettung, Hinrichtung]
